X: 37770
T: Sonantina
R: jig
M: 6/8
K: Gmajor
|:Bcd|G3 AGA|B2G Bcd|G3 GFG|A2z Bcd|
G3 GAB|c2e gec|B2d cAd|G2z:|
|:GFG|AB^c def|a2g fed|^cBA ecG|F2A ddd|
B2G ddd|B2G ddd|BGE FGE|D2z FED|
A2z AGF|c2z cBA|e2d cBA|GFE DEF|
GA^A Bcd|G3 AGA|B2G Bcd|G3 GFG|
A2z Bcd|G3 GAB|c2e gec|B2d cAd|G2z||
|:Bcd|A3 cBA|G3 GFG|EFG ABA|A2D Bcd|
A3 cBA|G3 g2e|d2B A2d|B3 g2e|d2B cAd|G3 G3||

